_icons/SVG/538-throh-shiny.svg

<svg xmlns="http://www.w3.org/2000/svg" viewBox="0 0 32 32"><title>538-throh-shiny</title><path d="M27.39052,15.08112,25.8289,16.81163l.27707,1.61462c-.44589.53793-.0641,1.70551.65144,2.184,0,0-.92851,4.15742.97082,3.75642,1.09733-.67528-.29547-3.0389.8441-3.62984.63311-.50646,1.60386,3.25,2.61685,2.237s-1.60386-2.91232-1.224-3.37661c.63311-1.05516.73884,1.33483,1.81492.46429.75969-1.35063-.78088-2.45109-1.60393-3.672Z" style="fill:#d6712d"/><path d="M18.78029,22.46737c.968,1.26568.85166,2.93991.21106,4.81165-.4737.4681.55285.62589,1.89932.71752L24.81591,25.844c.14348-1.72383.17-3.36945-.92858-4.26295Z" style="fill:#b9bfbe"/><path d="M23.88733,21.581l1.013-.29547c-.6077-1.48647-1.1955-3.1291-2.02591-2.87007,0,.64-3.459.95528-6.8817.94813V22.656a21.53094,21.53094,0,0,0,2.78758-.18865Z" style="fill:#c8cccb"/><path d="M22.87441,18.41549c.65573-.22871.02262-2.04363-.63311-1.81492,0,.66465-3.10416.99916-6.24859,1.0074v1.75565C19.41537,19.37077,22.87441,19.05548,22.87441,18.41549Z" style="fill:#373f3f"/><path d="M16.00729,17.6079c3.13932-.00926,6.234-.34377,6.234-1.00733l.88634-2.27914,2.53244,4.64275c1.3635-1.74352,2.84453-2.754,4.51611-2.5746L20.91649,5.783C22.30752,9.11076,21.06937,14.40761,16.00729,17.6079Z" style="fill:#c8cccb"/><path d="M20.91649,5.783l-.02582-.02964c-.83742-1.34558-2.93343-2.11038-4.898-2.11038V4.0995c5.84085,0,4.14727,8.46826.01247,11.35727l-.01247-.00047V17.608l.01458-.00007C21.06937,14.40761,22.30752,9.11076,20.91649,5.783Z" style="fill:#373f3f"/><path d="M15.99271,4.0995V15.4563l.01247.00047C20.14,12.56776,21.83356,4.0995,15.99271,4.0995Z" style="fill:#ce692c"/><path d="M24.81591,25.844c-1.75537-.22353-4.12267,1.136-3.92524,2.15256.10219.59693,5.05691.38574,4.93823-.14777C25.853,27.12471,26.23194,26.53323,24.81591,25.844Z" style="fill:#c95f2b"/><path d="M22.15669,22.65731a4.32428,4.32428,0,0,1,.42225,2.72238,2.54155,2.54155,0,0,0,1.77268-.59094,4.389,4.389,0,0,0-.37988-2.61678A3.51781,3.51781,0,0,1,22.15669,22.65731Z" style="fill:#373f3f"/><path d="M17.94143,8.78272a.9463.9463,0,0,0-.757,1.08487,1.05344,1.05344,0,0,0,1.9774-.57466A.94617.94617,0,0,0,17.94143,8.78272Z" style="fill:#edeeee"/><path d="M17.886,8.925a.64971.64971,0,0,0-.51961.74477.72318.72318,0,0,0,1.35745-.39445A.64962.64962,0,0,0,17.886,8.925Z" style="fill:#2b3332"/><path d="M17.97536,9.35615a.19785.19785,0,1,0,.19784.19785A.19789.19789,0,0,0,17.97536,9.35615Z" style="fill:#e3e5e5"/><path d="M16.79641,9.58029a7.44365,7.44365,0,0,0,2.58108-1.20974c.27326-.091-.06567-1.10782-.33893-1.0168,0,.70267-1.48723,1.067-3.04585,1.10128v3.80022H17.37Z" style="fill:#505957"/><path d="M17.13535,24.78875h1.9293c-.1742-3.80411-.871-6.73577-3.05736-7.18085l-.01458-.00375V20.064l.01458.01274C17.03377,19.42956,17.15279,21.87664,17.13535,24.78875Z" style="fill:#434c4b"/><path d="M4.60948,15.08112,6.1711,16.81163,5.894,18.42625c.44589.53793.0641,1.70551-.65144,2.184,0,0,.92851,4.15742-.97082,3.75642-1.09733-.67528.29547-3.0389-.8441-3.62984-.63311-.50646-1.60386,3.25-2.61685,2.237s1.60386-2.91232,1.224-3.37661c-.63311-1.05516-.73884,1.33483-1.81492.46429-.75969-1.35063.78088-2.45109,1.60393-3.672Z" style="fill:#dd7731"/><path d="M13.21971,22.46737c-.968,1.26568-.85166,2.93991-.21106,4.81165.4737.4681-.55285.62589-1.89932.71752L7.18409,25.844c-.14348-1.72383-.17-3.36945.92858-4.26295Z" style="fill:#c8cccb"/><path d="M8.11267,21.581l-1.013-.29547c.6077-1.48647,1.1955-3.1291,2.02591-2.87007,0,.64,3.459.95528,6.8817.94813V22.656a21.53094,21.53094,0,0,1-2.78758-.18865Z" style="fill:#d1d4d4"/><path d="M9.12559,18.41549c-.65573-.22871-.02262-2.04363.63311-1.81492,0,.66465,3.10416.99916,6.24859,1.0074v1.75565C12.58463,19.37077,9.12559,19.05548,9.12559,18.41549Z" style="fill:#434c4b"/><path d="M15.99271,17.6079c-3.13932-.00926-6.234-.34377-6.234-1.00733l-.88634-2.27914L6.33992,18.96418c-1.3635-1.74352-2.84453-2.754-4.51611-2.5746L11.08351,5.783C9.69248,9.11076,10.93063,14.40761,15.99271,17.6079Z" style="fill:#d1d4d4"/><path d="M11.08351,5.783l.02582-.02964c.83742-1.34558,2.93343-2.11038,4.898-2.11038V4.0995c-5.84085,0-4.14727,8.46826-.01247,11.35727.00429,0,.00818-.00047.01247-.00047V17.608l-.01458-.00007C10.93063,14.40761,9.69248,9.11076,11.08351,5.783Z" style="fill:#434c4b"/><path d="M16.00729,4.0995V15.4563c-.00429,0-.00818.00047-.01247.00047C11.86,12.56776,10.16644,4.0995,16.00729,4.0995Z" style="fill:#d6712d"/><path d="M7.18409,25.844c1.75537-.22353,4.12267,1.136,3.92524,2.15256-.10219.59693-5.05691.38574-4.93823-.14777C6.14705,27.12471,5.76806,26.53323,7.18409,25.844Z" style="fill:#ce692c"/><path d="M9.84331,22.65731a4.32428,4.32428,0,0,0-.42225,2.72238,2.54155,2.54155,0,0,1-1.77268-.59094A4.389,4.389,0,0,1,8.02826,22.172,3.51781,3.51781,0,0,0,9.84331,22.65731Z" style="fill:#434c4b"/><path d="M14.05857,8.78272a.9463.9463,0,0,1,.757,1.08487.94632.94632,0,0,1-1.2205.51027.94623.94623,0,0,1-.7569-1.08493A.94617.94617,0,0,1,14.05857,8.78272Z" style="fill:#f7f7f7"/><path d="M14.114,8.925a.64971.64971,0,0,1,.51961.74477.72318.72318,0,0,1-1.35745-.39445A.64962.64962,0,0,1,14.114,8.925Z" style="fill:#373f3f"/><path d="M14.02464,9.35615a.19785.19785,0,1,1-.19784.19785A.19789.19789,0,0,1,14.02464,9.35615Z" style="fill:#e3e5e5"/><path d="M15.20359,9.58029a7.44365,7.44365,0,0,1-2.58108-1.20974c-.27326-.091.06567-1.10782.33893-1.0168,0,.70267,1.48723,1.067,3.04585,1.10128v3.80022H14.63Z" style="fill:#5c6664"/><path d="M14.86465,24.78875h-1.9293c.1742-3.80411.871-6.73577,3.05736-7.18085l.01458-.00375V20.064l-.01458.01274C14.96623,19.42956,14.84721,21.87664,14.86465,24.78875Z" style="fill:#505957"/></svg>

<svg xmlns="http://www.w3.org/2000/svg" viewBox="0 0 32 32"><path d="M27.39 15.081l-1.561 1.73.277 1.615c-.446.538-.064 1.706.651 2.184 0 0-.928 4.158.971 3.757 1.098-.676-.295-3.04.844-3.63.633-.507 1.604 3.25 2.617 2.237s-1.604-2.912-1.224-3.377c.633-1.055.739 1.335 1.815.465.76-1.351-.78-2.452-1.604-3.672z" fill="#d6712d"/><path d="M18.78 22.467c.968 1.266.852 2.94.211 4.812-.473.468.553.626 1.9.718l3.925-2.153c.143-1.724.17-3.37-.929-4.263z" fill="#b9bfbe"/><path d="M23.887 21.581l1.013-.295c-.607-1.487-1.195-3.13-2.026-2.87 0 .64-3.459.955-6.881.948v3.292a21.53 21.53 0 002.787-.189z" fill="#c8cccb"/><path d="M22.874 18.415c.656-.228.023-2.043-.633-1.814 0 .664-3.104.999-6.248 1.007v1.756c3.422.007 6.881-.309 6.881-.949z" fill="#373f3f"/><path d="M16.007 17.608c3.14-.01 6.234-.344 6.234-1.007l.887-2.28 2.532 4.643c1.364-1.743 2.845-2.754 4.516-2.574l-9.26-10.607c1.392 3.328.153 8.625-4.909 11.825z" fill="#c8cccb"/><path d="M20.916 5.783l-.025-.03c-.838-1.345-2.934-2.11-4.898-2.11V4.1c5.84 0 4.147 8.468.012 11.357h-.012v2.151h.014c5.062-3.2 6.3-8.497 4.91-11.825z" fill="#373f3f"/><path d="M15.993 4.1v11.356h.012C20.14 12.569 21.834 4.1 15.993 4.1z" fill="#ce692c"/><path d="M24.816 25.844c-1.755-.224-4.123 1.136-3.925 2.153.102.596 5.057.385 4.938-.148.024-.724.403-1.316-1.013-2.005z" fill="#c95f2b"/><path d="M22.157 22.657a4.324 4.324 0 01.422 2.723 2.542 2.542 0 001.773-.591 4.389 4.389 0 00-.38-2.617 3.518 3.518 0 01-1.815.485z" fill="#373f3f"/><path d="M17.941 8.783a.946.946 0 00-.757 1.085 1.053 1.053 0 001.978-.575.946.946 0 00-1.22-.51z" fill="#edeeee"/><path d="M17.886 8.925a.65.65 0 00-.52.745.723.723 0 001.358-.395.65.65 0 00-.838-.35z" fill="#2b3332"/><path d="M17.975 9.356a.198.198 0 10.198.198.198.198 0 00-.198-.198z" fill="#e3e5e5"/><path d="M16.796 9.58a7.444 7.444 0 002.581-1.21c.274-.09-.065-1.107-.338-1.016 0 .702-1.488 1.067-3.046 1.101v3.8h1.377z" fill="#505957"/><path d="M17.135 24.789h1.93c-.175-3.804-.871-6.736-3.058-7.181l-.014-.004v2.46l.014.013c1.027-.647 1.146 1.8 1.128 4.712z" fill="#434c4b"/><path d="M4.61 15.081l1.561 1.73-.277 1.615c.446.538.064 1.706-.651 2.184 0 0 .928 4.158-.971 3.757-1.098-.676.295-3.04-.844-3.63-.633-.507-1.604 3.25-2.617 2.237s1.604-2.912 1.224-3.377c-.633-1.055-.74 1.335-1.815.465-.76-1.351.78-2.452 1.604-3.672z" fill="#dd7731"/><path d="M13.22 22.467c-.968 1.266-.852 2.94-.211 4.812.473.468-.553.626-1.9.718l-3.925-2.153c-.143-1.724-.17-3.37.929-4.263z" fill="#c8cccb"/><path d="M8.113 21.581L7.1 21.286c.607-1.487 1.195-3.13 2.026-2.87 0 .64 3.459.955 6.881.948v3.292a21.53 21.53 0 01-2.787-.189z" fill="#d1d4d4"/><path d="M9.126 18.415c-.656-.228-.023-2.043.633-1.814 0 .664 3.104.999 6.248 1.007v1.756c-3.422.007-6.881-.309-6.881-.949z" fill="#434c4b"/><path d="M15.993 17.608c-3.14-.01-6.234-.344-6.234-1.007l-.887-2.28-2.532 4.643c-1.364-1.743-2.845-2.754-4.516-2.574l9.26-10.607c-1.392 3.328-.153 8.625 4.909 11.825z" fill="#d1d4d4"/><path d="M11.084 5.783l.025-.03c.838-1.345 2.934-2.11 4.898-2.11V4.1c-5.84 0-4.147 8.468-.012 11.357h.012v2.151h-.014c-5.062-3.2-6.3-8.497-4.91-11.825z" fill="#434c4b"/><path d="M16.007 4.1v11.356h-.012C11.86 12.569 10.166 4.1 16.007 4.1z" fill="#d6712d"/><path d="M7.184 25.844c1.755-.224 4.123 1.136 3.925 2.153-.102.596-5.057.385-4.938-.148-.024-.724-.403-1.316 1.013-2.005z" fill="#ce692c"/><path d="M9.843 22.657a4.324 4.324 0 00-.422 2.723 2.542 2.542 0 01-1.773-.591 4.389 4.389 0 01.38-2.617 3.518 3.518 0 001.815.485z" fill="#434c4b"/><path d="M14.059 8.783a.946.946 0 01.757 1.085.946.946 0 01-1.22.51.946.946 0 01-.758-1.085.946.946 0 011.22-.51z" fill="#f7f7f7"/><path d="M14.114 8.925a.65.65 0 01.52.745.723.723 0 01-1.358-.395.65.65 0 01.838-.35z" fill="#373f3f"/><path d="M14.025 9.356a.198.198 0 11-.198.198.198.198 0 01.198-.198z" fill="#e3e5e5"/><path d="M15.204 9.58a7.444 7.444 0 01-2.581-1.21c-.274-.09.065-1.107.338-1.016 0 .702 1.488 1.067 3.046 1.101v3.8H14.63z" fill="#5c6664"/><path d="M14.865 24.789h-1.93c.175-3.804.871-6.736 3.058-7.181l.014-.004v2.46l-.014.013c-1.027-.647-1.146 1.8-1.128 4.712z" fill="#505957"/></svg>
